assets/logos/salomon.svg

<svg width="219" height="27" viewBox="0 0 219 27" fill="none" xmlns="http://www.w3.org/2000/svg">
<g clip-path="url(#clip0_17_22)">
<path fill-rule="evenodd" clip-rule="evenodd" d="M39.6901 0.230584L26.9192 24.9249H35.4555L37.4965 20.4083H46.9847L47.798 24.9265H56.3327L51.4001 0.232142H39.6901V0.230584ZM39.6185 15.6829L44.8752 5.31435H44.9468L46.5313 15.6829H39.6185ZM70.4482 0.230584H62.2266L58.5217 24.9234H78.9144L79.7604 18.9967H67.5893L70.4482 0.230584ZM139.658 0.230584L131.759 18.7521H131.687L129.5 0.230584H119.021L109.888 24.9234H117.928L123.924 7.10449H123.995L125.899 24.9218H135.637L143.047 7.52983H143.113L144.349 24.9218H152.567L150.417 0.230584H139.658ZM210.711 0.230584L207.925 18.3268H207.856L200.026 0.230584H188.911L185.209 24.9234H193.038L195.436 7.21355H195.508L202.917 24.9218H214.416L218.12 0.230584H210.711ZM111.397 8.99747C112.101 5.18815 111.058 2.89477 108.822 1.55489C106.588 0.215004 103.141 0.00311601 99.0142 0.00311601C94.8871 0.00311601 91.3597 0.215004 88.6067 1.55489C85.8553 2.89477 83.9545 5.20061 83.2472 8.99747L81.9385 16.1425C81.2358 19.9487 82.2813 22.2078 84.5528 23.5477C86.8244 24.8875 90.2302 25.1368 94.3573 25.1368C98.4829 25.1368 102.083 24.8875 104.801 23.5477C107.519 22.2078 109.387 19.9487 110.092 16.1425L111.397 8.99747ZM103.035 9.67831L101.872 15.6423C101.096 19.5576 99.4395 19.9424 95.1706 19.9424C90.9017 19.9424 89.3499 19.6028 90.1242 15.6423L91.3052 9.67831C92.0842 5.76305 93.8806 5.40939 98.0077 5.40939C102.365 5.4125 103.777 5.79889 103.035 9.67831ZM181.926 1.56891C179.667 0.229026 176.246 0.017138 172.119 0.017138C167.993 0.017138 164.464 0.227468 161.713 1.56891C158.96 2.90879 157.055 5.20217 156.35 8.99747L155.045 16.1425C154.34 19.9487 155.384 22.2078 157.657 23.5477C159.931 24.8875 163.335 25.1368 167.462 25.1368C171.589 25.1368 175.188 24.8875 177.902 23.5477C180.618 22.2078 182.478 19.9456 183.196 16.1425L184.499 8.99747C185.2 5.20217 184.148 2.90879 181.926 1.56891ZM176.143 9.68143L174.993 15.6455C174.217 19.5607 172.558 19.9456 168.292 19.9456C164.027 19.9456 162.472 19.6059 163.246 15.6455L164.393 9.67831C165.169 5.76305 166.968 5.40939 171.095 5.40939C175.47 5.4125 176.882 5.80044 176.14 9.67831L176.143 9.68143ZM24.7364 13.8117L12.76 7.91465C10.8188 6.96272 10.6754 6.57477 10.853 5.68983C10.9574 5.16011 11.2768 4.87655 12.5824 4.73633C13.3973 4.66622 14.9148 4.62727 16.398 4.62727C17.3172 4.62727 18.4826 4.66622 19.0824 4.70361C21.2387 4.84383 21.4833 5.15855 21.2013 6.57321L20.7806 8.69366H28.4445L29.2188 4.80488C29.856 1.59228 28.7265 0 24.5588 0H10.7471C5.66022 0 4.31566 0.919222 3.54133 4.80332L3.08172 7.09982C2.62367 9.43371 3.25933 10.7736 6.75705 12.5061L15.6221 16.8498C18.2006 18.1227 18.4109 18.439 18.2349 19.2896C18.0946 20.0312 17.8126 20.2416 16.5335 20.3475C15.275 20.4225 14.0145 20.4573 12.7538 20.4519C10.7393 20.4519 9.69233 20.4192 8.83075 20.2759C7.81026 20.0982 7.56254 19.6402 7.70276 18.936L8.19509 16.4619H0.856893L0.14956 19.9939C-0.557774 23.5274 1.209 25.1166 5.80044 25.1166H19.6511C24.5931 25.1166 25.774 23.7019 26.5359 19.9222L27.0282 17.5197C27.3819 15.7202 27.0999 14.9802 24.7364 13.8117Z" fill="white"/>
</g>
<defs>
<clipPath id="clip0_17_22">
<rect width="218.12" height="26.4861" fill="white"/>
</clipPath>
</defs>
</svg>

<svg xmlns="http://www.w3.org/2000/svg" width="219" height="27" fill="none" viewBox="0 0 219 27"><g clip-path="url(#a)"><path fill="#fff" fill-rule="evenodd" d="M39.69.23 26.92 24.926h8.535l2.041-4.517h9.489l.813 4.518h8.535L51.4.233H39.69zm-.072 15.453 5.257-10.369h.072l1.584 10.369zM70.449.23h-8.221l-3.705 24.692h20.392l.846-5.926H67.59zm69.21 0-7.899 18.521h-.072L129.5.231h-10.479l-9.133 24.692h8.04l5.996-17.819h.071l1.904 17.818h9.738l7.41-17.392h.066l1.236 17.392h8.218L150.417.23zm71.053 0-2.786 18.096h-.069L200.026.23h-11.115l-3.702 24.692h7.829l2.398-17.71h.072l7.409 17.709h11.499L218.12.23zm-99.314 8.766c.704-3.809-.339-6.102-2.575-7.442-2.234-1.34-5.681-1.552-9.808-1.552S91.36.215 88.607 1.555c-2.752 1.34-4.653 3.646-5.36 7.442l-1.308 7.145c-.703 3.807.342 6.066 2.614 7.406s5.677 1.589 9.804 1.589c4.126 0 7.726-.25 10.444-1.59s4.586-3.598 5.291-7.405zm-8.362.681-1.163 5.964c-.776 3.916-2.433 4.3-6.701 4.3-4.27 0-5.821-.34-5.047-4.3l1.181-5.964c.78-3.915 2.576-4.269 6.703-4.269 4.357.003 5.769.39 5.027 4.27m78.891-8.11c-2.259-1.339-5.68-1.55-9.807-1.55-4.126 0-7.655.21-10.406 1.55-2.753 1.34-4.658 3.634-5.363 7.43l-1.305 7.144c-.705 3.807.339 6.066 2.612 7.406s5.678 1.589 9.805 1.589 7.726-.25 10.44-1.59c2.716-1.34 4.576-3.601 5.294-7.405l1.303-7.145c.701-3.795-.351-6.088-2.573-7.428m-5.783 8.113-1.15 5.965c-.776 3.915-2.435 4.3-6.701 4.3-4.265 0-5.82-.34-5.046-4.3l1.147-5.968c.776-3.915 2.575-4.269 6.702-4.269 4.375.003 5.787.391 5.045 4.27zm-151.407 4.13L12.76 7.916c-1.941-.952-2.085-1.34-1.907-2.225.104-.53.424-.813 1.73-.954.814-.07 2.332-.109 3.815-.109.92 0 2.085.04 2.684.077 2.157.14 2.401.455 2.12 1.87l-.421 2.12h7.664l.774-3.89C29.856 1.593 28.727 0 24.559 0H10.747C5.66 0 4.316.92 3.541 4.803L3.081 7.1c-.457 2.334.178 3.674 3.676 5.406l8.865 4.344c2.579 1.273 2.789 1.589 2.613 2.44-.14.741-.422.952-1.701 1.058q-1.89.113-3.78.104c-2.015 0-3.062-.033-3.923-.176-1.02-.178-1.268-.636-1.128-1.34l.492-2.474H.857L.15 19.994c-.708 3.533 1.059 5.123 5.65 5.123h13.851c4.942 0 6.123-1.415 6.885-5.195l.492-2.402c.354-1.8.072-2.54-2.292-3.708" clip-rule="evenodd"/></g><defs><clipPath id="a"><path fill="#fff" d="M0 0h218.12v26.486H0z"/></clipPath></defs></svg>
